X:35
T:WISP OF THISTLE/Thorn Bush 8 x 32 Strathspey # 1
M:4/4
C:Trad.
S:John Chamber's ABC Dance sets
R:Strathspey
K:A
E \
| "A"A>B c>A "D"F<A "A"E>C | "Bm"B,<B B>c "E7"d/c/B/A/ G<B |"A"A>B c>A "D"F<A "A"E>C | "D"D<F "E7"E>G  "A"A<A, A,E |!
| "A"A>B c>A "D"F<A "A"E>C | "Bm"B,<B B>c "E7"d/c/B/A/ G<B |"A"A>B c>A "D"F<A "A"E>C | "D"D<F "E7"E>G  "A""A"A/A/A A|!
| "A"d/c/B/A/ e>A "D"f<a "A"e>c | "Bm"d>B d/c/B/A/ "E7"G<B B>e \
| "A"d/c/B/A/ e>A "D"f<a "A"e>c | "Bm"d>B "E7"d/c/B/A/ "A"E<A A |]
e \
| "A"d/c/B/A/ e>A "D"f<a "A"e>c | "Bm"d>B d/c/B/A/ "E7"G<B B>d \
| "A"(3cAc (3ece "D"(3fdf (3agf | "E7"(3edc (3cBA "A"E<A A |]
